!!!SOCIAL_FUNCTION:	songs of a medicine-man
!!!PDT:	1936
!!!OTL: No_26_Song_of_a_Woman-spirit.krn
!!!REG: Oklahoma and Montana
!!!LANG: Tone
!!!LING_GROUP: Algonquin
**kern
*staff1
=1-
*clefF4
*k[f#c#]
*M2/4
12d\L
12d\
12d\J
(4d\
=2
12A\L)
12A\
12A\J
8A\
8r
=3!|:
12d\L
12d\
12d\J
8.d\L
16d\Jk
=4
12A\L
12A\
12A\J
8A\
8r
=5
12F#\L
12F#\
12F#\J
8.F#\L
16F#\Jk
=6
*M3/4
12E\L
12E\
12E\J
8.E\L
16E\Jk
8D\
8r
=7
*M2/4
12F#\L
12F#\
12F#\J
8.F#\L
16F#\Jk
=8
12E\L
12E\
12E\J
8.E\L
16E\Jk
=9
*M3/4
12D\L
12D\
12D\J
4D\
8AA/
8r
=10
*M2/4
12E\L
12E\
12E\J
8.E\L
16E\Jk
=11
*M3/4
12D\L
12D\
12D\J
4D\
8AA/
8r
=12
*M2/4
12BB/L
12AA/
12AA/J
8.AA/L
16AA/Jk
=13
4AA/
8AA/
8r
==:|!
*-
